assets/sonr-icons/goals.svg

<svg xmlns="http://www.w3.org/2000/svg" width="24" height="24" fill="none" viewBox="0 0 24 24"><path fill="#000" fill-rule="evenodd" d="M19.5787 1.97063C19.4406 1.69462 19.1784 1.50178 18.8738 1.45235C18.5692 1.40292 18.2594 1.50293 18.0412 1.72113L15.1612 4.60113C14.9811 4.78117 14.88 5.02535 14.88 5.27995V7.76231L11.3212 11.3211C10.9463 11.696 10.9463 12.3039 11.3212 12.6788C11.6961 13.0537 12.3039 13.0537 12.6788 12.6788L16.2376 9.11995H18.72C18.9746 9.11995 19.2188 9.01881 19.3988 8.83878L22.2788 5.95878C22.497 5.74057 22.597 5.43078 22.5476 5.12618C22.4982 4.82158 22.3053 4.55931 22.0293 4.4213L20.3955 3.60441L19.5787 1.97063ZM19.9794 5.54295L18.3224 7.19995H16.8V5.6776L18.457 4.02059L18.8214 4.74928C18.9142 4.93506 19.0649 5.08571 19.2507 5.1786L19.9794 5.54295Z" clip-rule="evenodd"/><path fill="#000" d="M3.36 12C3.36 7.22815 7.2282 3.35995 12 3.35995C12.5302 3.35995 12.96 2.93015 12.96 2.39995C12.96 1.86976 12.5302 1.43995 12 1.43995C6.16781 1.43995 1.44 6.16776 1.44 12C1.44 17.8321 6.16781 22.56 12 22.56C17.8322 22.56 22.56 17.8321 22.56 12C22.56 11.4698 22.1302 11.04 21.6 11.04C21.0698 11.04 20.64 11.4698 20.64 12C20.64 16.7718 16.7718 20.64 12 20.64C7.2282 20.64 3.36 16.7718 3.36 12Z"/><path fill="#000" d="M8.16 12C8.16 9.87915 9.8792 8.15995 12 8.15995C12.5302 8.15995 12.96 7.73015 12.96 7.19995C12.96 6.66976 12.5302 6.23995 12 6.23995C8.81881 6.23995 6.24 8.81876 6.24 12C6.24 15.1811 8.81881 17.76 12 17.76C15.1812 17.76 17.76 15.1811 17.76 12C17.76 11.4698 17.3302 11.04 16.8 11.04C16.2698 11.04 15.84 11.4698 15.84 12C15.84 14.1208 14.1208 15.84 12 15.84C9.8792 15.84 8.16 14.1208 8.16 12Z"/></svg>

<svg xmlns="http://www.w3.org/2000/svg" width="24" height="24" fill="none"><path fill="currentColor" fill-rule="evenodd" d="M19.579 1.97a.96.96 0 0 0-1.538-.249l-2.88 2.88a.96.96 0 0 0-.281.679v2.482l-3.559 3.56a.96.96 0 0 0 1.358 1.357l3.559-3.56h2.482a.96.96 0 0 0 .679-.28l2.88-2.88a.96.96 0 0 0-.25-1.538l-1.634-.817zm.4 3.573L18.322 7.2H16.8V5.678l1.657-1.657.364.728a.96.96 0 0 0 .43.43z" clip-rule="evenodd"/><path fill="currentColor" d="M3.36 12A8.64 8.64 0 0 1 12 3.36a.96.96 0 1 0 0-1.92C6.168 1.44 1.44 6.168 1.44 12S6.168 22.56 12 22.56 22.56 17.832 22.56 12a.96.96 0 1 0-1.92 0 8.64 8.64 0 1 1-17.28 0"/><path fill="currentColor" d="M8.16 12A3.84 3.84 0 0 1 12 8.16a.96.96 0 1 0 0-1.92A5.76 5.76 0 1 0 17.76 12a.96.96 0 1 0-1.92 0 3.84 3.84 0 1 1-7.68 0"/></svg>
